src/assets/tokens/INSP.svg

<svg width="96" height="96" viewBox="0 0 96 96" fill="none" xmlns="http://www.w3.org/2000/svg">
<g clip-path="url(#clip0_3738_4591)">
<path d="M96 0H0V96H96V0Z" fill="black"/>
<path fill-rule="evenodd" clip-rule="evenodd" d="M59.2286 28.7998C48.6567 28.7998 40.0571 37.4123 40.0571 47.9998C40.0571 58.5873 48.6567 67.1998 59.2286 67.1998C69.8004 67.1998 78.4001 58.5873 78.4001 47.9998C78.4001 37.4123 69.8004 28.7998 59.2286 28.7998ZM59.2286 61.714C51.6695 61.714 45.5345 55.57 45.5345 47.9998C45.5345 40.4296 51.6695 34.2856 59.2286 34.2856C66.7876 34.2856 72.9227 40.4296 72.9227 47.9998C72.9227 55.57 66.7876 61.714 59.2286 61.714ZM32.3886 58.9678H30.1974C29.2662 58.9678 28.5541 58.2545 28.5541 57.322V38.9448C28.5541 38.0123 29.2662 37.2993 30.1974 37.2993H32.3886C33.3198 37.2993 34.0318 38.0123 34.0318 38.9448V57.322C34.0318 58.2545 33.3198 58.9678 32.3886 58.9678ZM19.2434 55.187H21.4344C22.3656 55.187 23.0777 54.4737 23.0777 53.5412V42.515C23.0777 41.5822 22.3656 40.8692 21.4344 40.8692H19.2434C18.3122 40.8692 17.6001 41.5822 17.6001 42.515V53.5412C17.6001 54.4737 18.3122 55.187 19.2434 55.187Z" fill="url(#paint0_linear_3738_4591)"/>
</g>
<defs>
<linearGradient id="paint0_linear_3738_4591" x1="17.6001" y1="47.9944" x2="78.4001" y2="47.9944" gradientUnits="userSpaceOnUse">
<stop stop-color="#00F0FF"/>
<stop offset="1" stop-color="#ACFD00"/>
</linearGradient>
<clipPath id="clip0_3738_4591">
<rect width="96" height="96" rx="48" fill="white"/>
</clipPath>
</defs>
</svg>

<svg fill="none" height="96" width="96" xmlns="http://www.w3.org/2000/svg" xmlns:xlink="http://www.w3.org/1999/xlink"><linearGradient id="a" gradientUnits="userSpaceOnUse" x1="17.6" x2="78.4" y1="47.994" y2="47.994"><stop offset="0" stop-color="#00f0ff"/><stop offset="1" stop-color="#acfd00"/></linearGradient><clipPath id="b"><rect height="96" rx="48" width="96"/></clipPath><g clip-path="url(#b)"><path d="m96 0h-96v96h96z" fill="#000"/><path clip-rule="evenodd" d="m59.229 28.8c-10.572 0-19.172 8.612-19.172 19.2 0 10.587 8.6 19.2 19.172 19.2 10.571 0 19.171-8.613 19.171-19.2 0-10.588-8.6-19.2-19.171-19.2zm0 32.914c-7.56 0-13.694-6.144-13.694-13.714s6.135-13.714 13.694-13.714 13.694 6.144 13.694 13.714-6.135 13.714-13.694 13.714zm-26.84-2.746h-2.192a1.615 1.615 0 0 1 -1.643-1.646v-18.377c0-.933.712-1.646 1.643-1.646h2.192c.93 0 1.643.713 1.643 1.646v18.377c0 .932-.712 1.646-1.643 1.646zm-13.146-3.781h2.191c.932 0 1.644-.713 1.644-1.646v-11.026c0-.933-.712-1.646-1.644-1.646h-2.19c-.932 0-1.644.713-1.644 1.646v11.026c0 .933.712 1.646 1.643 1.646z" fill="url(#a)" fill-rule="evenodd"/></g></svg>
